themes/orange/widget/headphones.svg

<svg height="48" width="48" xmlns="http://www.w3.org/2000/svg">
  <path d="m30 16h-2v-4c0-6.625-5.375-12-12-12-6.625 0-12 5.375-12 12v4h-2c-1.105 0-2 .895-2 2v8c0 1.105.895 2 2 2h6v-12-4c0-4.414 3.586-8 8-8 4.414 0 8 3.586 8 8v4 12h6c1.105 0 2-.895 2-2v-8c0-1.105-.895-2-2-2z" fill="#a0a0a0" transform="matrix(1.5 0 0 1.5 0 3)"/>
</svg>

<?xml version="1.0" encoding="UTF-8" standalone="no"?>
<!-- Created with Inkscape (http://www.inkscape.org/) -->

<svg
   xmlns:dc="http://purl.org/dc/elements/1.1/"
   xmlns:cc="http://creativecommons.org/ns#"
   xmlns:rdf="http://www.w3.org/1999/02/22-rdf-syntax-ns#"
   xmlns:svg="http://www.w3.org/2000/svg"
   xmlns="http://www.w3.org/2000/svg"
   xmlns:sodipodi="http://sodipodi.sourceforge.net/DTD/sodipodi-0.dtd"
   xmlns:inkscape="http://www.inkscape.org/namespaces/inkscape"
   width="48px"
   height="48px"
   id="svg3001"
   version="1.1"
   inkscape:version="0.48.4 r9939"
   sodipodi:docname="New document 2">
  <defs
     id="defs3003" />
  <sodipodi:namedview
     id="base"
     pagecolor="#ffffff"
     bordercolor="#666666"
     borderopacity="1.0"
     inkscape:pageopacity="0.0"
     inkscape:pageshadow="2"
     inkscape:zoom="7"
     inkscape:cx="-5"
     inkscape:cy="24"
     inkscape:current-layer="layer1"
     showgrid="true"
     inkscape:grid-bbox="true"
     inkscape:document-units="px"
     inkscape:window-width="1912"
     inkscape:window-height="1036"
     inkscape:window-x="0"
     inkscape:window-y="0"
     inkscape:window-maximized="1" />
  <metadata
     id="metadata3006">
    <rdf:RDF>
      <cc:Work
         rdf:about="">
        <dc:format>image/svg+xml</dc:format>
        <dc:type
           rdf:resource="http://purl.org/dc/dcmitype/StillImage" />
        <dc:title></dc:title>
      </cc:Work>
    </rdf:RDF>
  </metadata>
  <g
     id="layer1"
     inkscape:label="Layer 1"
     inkscape:groupmode="layer">
    <g
       id="headphones"
       transform="matrix(1.5,0,0,1.5,0,3)"
       style="fill:#a0a0a0;fill-opacity:1">
      <path
         inkscape:connector-curvature="0"
         style="fill:#a0a0a0;fill-opacity:1"
         d="M 30,16 H 28 V 12 C 28,5.375 22.625,0 16,0 9.375,0 4,5.375 4,12 v 4 H 2 c -1.105,0 -2,0.895 -2,2 v 8 c 0,1.105 0.895,2 2,2 H 8 V 16 12 c 0,-4.414 3.586,-8 8,-8 4.414,0 8,3.586 8,8 v 4 12 h 6 c 1.105,0 2,-0.895 2,-2 v -8 c 0,-1.105 -0.895,-2 -2,-2 z"
         id="path6" />
    </g>
  </g>
</svg>
